X: 154
T: REEL: Sally Gardens
C: C: Trad.; S: Various
C: Set Leaders: André, Anton, Sophie
Z: [Unedited]; slainte at The Session
N: https://thesession.org/members/26966/sets/96708
R: Reel
M: 4/4
L: 1/8
Q: 1/2=100
K: Gmaj
|:G2 DG BAGB|dBeB dBAB|d2 Bd efge|dBAB GEDE|
G2 DG BAGB|dBeB dBAB|d2 Bd efge|1 dBAB G2 DE:|2 dBAB G2 Bc||
|:dggf g2 dg|gabg aged|eaag a2 ea|agbg ageg|
dggf g2 dg|gabg ageg|d2 Bd efge|1 dBAB G2 Bc:|2 dBAB G2 D/E/F||

